X:365
T: Brook [The]
S: "First Collection of Traditional Irish Music" (M.Mulvihill)
Z: B.Black
L: 1/8
M: 4/4
R: reel
K: G
c|: d2 eB dBGB|c2 Bc (3ABc GE|D2 B,D GABc|dg (3gfg egdg|
bg (3gfg dBGB|(3cBc Bc ABGE|D2 B,D EDB,D|1 (3EFG Ac BG G2 :|2\
(3EFG Ac BGGc||
dGBd GBdg|bg (3gfg dBGB|c2 ec BcdB|cABG AGEG|
bg (3gfg agfa|gfge dBGB|c2 ed BcdB|1 BAFA G4 :|2\
BAFA G3 c||
